src/img/icons/code.svg

<svg width="32" height="32" viewBox="0 0 32 32" fill="none" xmlns="http://www.w3.org/2000/svg">
<path d="M4.63528 16.1044L10.7589 22.2276C10.9676 22.4366 11.0745 22.6993 11.0796 23.0157C11.0843 23.3319 10.9774 23.5994 10.7589 23.8182C10.54 24.0368 10.2749 24.1461 9.96356 24.1461C9.65219 24.1461 9.38709 24.0368 9.16827 23.8182L2.38595 17.0359C2.24485 16.8945 2.14525 16.7455 2.08715 16.5888C2.02905 16.4321 2 16.2629 2 16.081C2 15.8992 2.02905 15.7299 2.08715 15.5732C2.14525 15.4165 2.24485 15.2675 2.38595 15.1261L9.16827 8.34381C9.39287 8.11946 9.65948 8.00489 9.96809 8.00011C10.2765 7.99533 10.5477 8.1099 10.7819 8.34381C11.016 8.57798 11.1331 8.84697 11.1331 9.15081C11.1331 9.45439 11.016 9.72326 10.7819 9.95743L4.63528 16.1044ZM27.3647 16.0576L21.2411 9.93441C21.0324 9.7254 20.9255 9.46269 20.9204 9.14628C20.9157 8.83012 21.0226 8.56263 21.2411 8.34381C21.46 8.12524 21.7251 8.01596 22.0364 8.01596C22.3478 8.01596 22.6129 8.12524 22.8317 8.34381L29.614 15.1261C29.7551 15.2675 29.8547 15.4165 29.9128 15.5732C29.971 15.7299 30 15.8992 30 16.081C30 16.2629 29.971 16.4321 29.9128 16.5888C29.8547 16.7455 29.7551 16.8945 29.614 17.0359L22.8317 23.8182C22.6071 24.0426 22.3444 24.1532 22.0436 24.1502C21.7428 24.1474 21.4753 24.029 21.2411 23.7948C21.0072 23.5607 20.8903 23.2918 20.8903 22.9882C20.8903 22.6844 21.0072 22.4154 21.2411 22.1812L27.3647 16.0576Z" fill="#131212"/>
</svg>

<svg xmlns="http://www.w3.org/2000/svg" viewBox="0 0 32 32">
  <path fill="currentColor" d="m4.635 16.104 6.124 6.124c.209.209.316.471.32.788.005.316-.102.583-.32.802a1.084 1.084 0 0 1-.795.328c-.312 0-.577-.11-.796-.328l-6.782-6.782a1.256 1.256 0 0 1-.299-.447A1.45 1.45 0 0 1 2 16.08c0-.182.029-.351.087-.508a1.25 1.25 0 0 1 .299-.447l6.782-6.782a1.12 1.12 0 0 1 1.614 0c.234.234.351.503.351.807 0 .303-.117.572-.351.806l-6.147 6.147Zm22.73-.046L21.24 9.934a1.096 1.096 0 0 1-.32-.788 1.068 1.068 0 0 1 .32-.802c.219-.219.484-.328.795-.328.312 0 .577.11.796.328l6.782 6.782c.141.142.24.29.299.447.058.157.087.326.087.508s-.029.351-.087.508a1.256 1.256 0 0 1-.299.447l-6.782 6.782a1.064 1.064 0 0 1-.788.332 1.12 1.12 0 0 1-.803-.355 1.11 1.11 0 0 1-.35-.807c0-.304.116-.573.35-.807l6.124-6.123Z"/>
</svg>
